X: 09032
T: DIANA'S JIG
C: Bob McQuillen 27 Sept 92
B: Bob's Note Book 9 #32
R: hornpipe, reel
Z: 2019 John Chambers <jc:trillian.mit.edu>
M: 6/8
L: 1/8
K: D
FE \
| DEF FEF | DFA d2A | Bdf edA | BAF EFE |
| DEF FEF | DFA dfe | dBd edB | AFD E :|
|: FA \
| BdB BAF | ABA A2A | dBA FAd | AFD E2F |
| DFA FAd | fed B2d | ABA FDF | EDD D :|
%%begintext align
%% This tune's been waiting in the
%% wings for TEN YEARS! Do you believe that? I first wrote it in
%% March 1983, and it's for Diana Jacobs, who lives over in Chesham;
%% She was living in Dublin when I decided she needed a tune - She's
%% a great dancer, ou know; but the melody needed work, and so,
%% at long last, here it is. Probably no better than it ever was,
%% Diana, but I hope you like it!
%%endtext

%%sep 1 1 500

%%sep 1 1 500

